svg/fluentui-system-icons/ic_fluent_design_ideas_24_filled.svg

<svg width="24" height="24" viewBox="0 0 24 24" fill="none" xmlns="http://www.w3.org/2000/svg">
<path d="M5.57489 2.07403C5.83474 2.19892 6 2.4617 6 2.75001C6 3.57985 6.31211 4.05763 6.70313 4.63948L6.73156 4.68175C7.0641 5.17579 7.5 5.8234 7.5 6.75001C7.5 7.69552 7.02282 8.52959 6.29615 9.02452C6.48733 9.1848 6.65672 9.38248 6.80225 9.61803C7.27801 10.388 7.5 11.5645 7.5 13.2549C7.5 14.967 7.27003 17.023 6.89541 18.6644C6.70914 19.4806 6.47843 20.2335 6.20272 20.7994C6.06598 21.08 5.89948 21.3541 5.69217 21.5685C5.48714 21.7804 5.17035 22.0049 4.75 22.0049C4.32965 22.0049 4.01286 21.7804 3.80783 21.5685C3.60052 21.3541 3.43402 21.08 3.29728 20.7994C3.02157 20.2335 2.79086 19.4806 2.60459 18.6644C2.22997 17.023 2 14.967 2 13.2549C2 11.5645 2.22199 10.388 2.69775 9.61803C2.84328 9.38248 3.01267 9.1848 3.20385 9.02452C2.47718 8.52959 2 7.69552 2 6.75001C2 6.38181 2.00034 5.74889 2.38341 4.93168C2.75829 4.13192 3.47066 3.21301 4.78148 2.16436C5.00661 1.98425 5.31504 1.94914 5.57489 2.07403ZM9.99994 14.917C9.46162 14.8267 8.94761 14.6647 8.46806 14.4412C8.48904 14.0349 8.49994 13.637 8.49994 13.2549C8.49994 12.8491 8.48793 12.461 8.46151 12.0915C8.90465 12.4558 9.4275 12.7266 9.99994 12.874V10.5C9.99994 9.67157 10.6715 9 11.4999 9H14.9999C14.9999 6.79086 13.2091 5 10.9999 5C10.0146 5 9.11251 5.35626 8.4154 5.94699C8.24173 5.13337 7.83957 4.53662 7.58275 4.15554L7.54248 4.09572C8.51976 3.40549 9.7125 3 10.9999 3C14.3136 3 16.9999 5.68629 16.9999 9H20.4999C21.3284 9 21.9999 9.67157 21.9999 10.5V19.5C21.9999 20.3284 21.3284 21 20.4999 21H11.4999C10.6715 21 9.99994 20.3284 9.99994 19.5V14.917ZM11.9999 14.917V19H19.9999V11H16.6585C15.9423 13.0265 14.1683 14.5533 11.9999 14.917ZM14.4648 11H11.9999V12.874C13.0508 12.6035 13.9345 11.9168 14.4648 11Z" fill="#212121"/>
</svg>

<svg xmlns="http://www.w3.org/2000/svg" width="24" height="24"><path d="M5.575 2.074A.75.75 0 0 1 6 2.75c0 .83.312 1.308.703 1.89l.029.042c.332.494.768 1.141.768 2.068 0 .946-.477 1.78-1.204 2.275.191.16.36.357.506.593.476.77.698 1.947.698 3.637 0 1.712-.23 3.768-.605 5.41-.186.816-.417 1.569-.692 2.134a3.043 3.043 0 0 1-.51.77c-.206.211-.523.436-.943.436-.42 0-.737-.225-.942-.436a2.995 2.995 0 0 1-.51-.77c-.276-.566-.507-1.318-.693-2.135A26.05 26.05 0 0 1 2 13.254c0-1.69.222-2.866.698-3.636a2.44 2.44 0 0 1 .506-.593A2.747 2.747 0 0 1 2 6.75c0-.368 0-1.001.383-1.818.375-.8 1.088-1.719 2.398-2.768a.75.75 0 0 1 .794-.09ZM10 14.917a5.957 5.957 0 0 1-1.532-.476c.021-.406.032-.804.032-1.186 0-.406-.012-.794-.038-1.164.443.365.966.636 1.538.783V10.5A1.5 1.5 0 0 1 11.5 9H15a4 4 0 0 0-6.585-3.053c-.173-.814-.575-1.41-.832-1.791l-.04-.06A6 6 0 0 1 17 9h3.5a1.5 1.5 0 0 1 1.5 1.5v9a1.5 1.5 0 0 1-1.5 1.5h-9a1.5 1.5 0 0 1-1.5-1.5v-4.583Zm2 0V19h8v-8h-3.341a6.008 6.008 0 0 1-4.66 3.917ZM14.465 11H12v1.874A4.008 4.008 0 0 0 14.465 11Z"/></svg>
